X:1
T:The singers go before with joy
T:John Arnold
T:Text: Thomas Sternhold, on Ps. 68
T:This edition by Edmund Gooch released into the public domain, December 2013.
T:The singers go before with joy
T:PSALM LXVIII, Verse 26, 27, 29, 30.
C:John Arnold
Z:Text: Thomas Sternhold, on Ps. 68
%%score [ 1 2 3 4 ]
L:1/8
M:3/2
K:F
V:1 treble nm="SOPRANO" snm="S."
V:2 treble nm="ALTO" snm="A."
V:3 treble-8 transpose=-12 nm="TENOR" snm="T."
V:4 bass nm="BASS" snm="B."
V:1
 F4 | F8 F4 | G8 A4 | G8 F4 | E8 E4 | (F3 G A4) c4 | A8 G4 | G8 A4 | A8 G4 | G8 c4 | B8 G4 | %11
w: Thy|God hath|sent forth|strength for|thee: O|God, _ _ make|firm and|sure The|thing that|thou hast|wrought in|
w: The|sin- gers|go be-|fore with|joy, The|min- * * strels|make no|stay; And|in the|midst, the|dam- sels|
w: Now|in the|con- gre-|ga- tion|thou, O|Is- * * rael,|praise the|Lord; And|Ja- cob’s|whole pos-|te- ri-|
 A8 G4 | (F3 G A3 B c3 B | A8) E4 | (FGAG F4) E4 | F8 |] %16
w: us, For|e- * * * * *|* ver|to _ _ _ _ en-|dure.|
w: do With|tim- * * * * *|* brels|sweet- * * * * ly|play.|
w: ty A-|gree _ _ _ _ _|_ with|one _ _ _ _ ac-|cord.|
V:2
 C4 | C8 (C2 F2) | E8 F4 | (F3 E D4) C4 | C8 C4 | (C4 F4) C4 | F8 D4 | E8 F4 | C8 (C2 D2) | E8 F4 | %10
w: Thy|God hath _|sent forth|strength _ _ for|thee: O|God, _ make|firm and|sure The|thing that _|thou hast|
w: The|sin- gers _|go be-|fore _ _ with|joy, The|min- * strels|make no|stay; And|in the _|midst, the|
w: Now|in the _|con- gre-|ga- * * tion|thou, O|Is- * rael,|praise the|Lord; And|Ja- cob’s _|whole pos-|
 F8 E4 | F8 z4 | z12 | C4 F4 E4 | (D4 C4) (CB,A,B,) | C8 |] %16
w: wrought in|us,||For e- ver|to _ en- * * *|dure.|
w: dam- sels|do||With tim- brels|sweet- * ly _ _ _|play.|
w: te- ri-|ty||A- gree with|one _ ac- * * *|cord.|
V:3
 F4 | A8 (G2 F2) | c8 c4 | (d3 c B4) A4 | G8 G4 | (A3 G F4) E4 | (F3 G A4) =B4 | c8 c4 | %8
w: Thy|God hath _|sent forth|strength _ _ for|thee: O|God, _ _ make|firm _ _ and|sure The|
w: The|sin- gers _|go be-|fore _ _ with|joy, The|min- * * strels|make _ _ no|stay; And|
w: Now|in the _|con- gre-|ga- * * tion|thou, O|Is- * * rael,|praise _ _ the|Lord; And|
 f8 (e2 d2) | c8 c4 | d8 (c2 B2) | A8 G4 | (A3 G F3 G A3 B | c8) B4 | (AGFG A4) G4 | F8 |] %16
w: thing that _|thou hast|wrought in _|us, For|e- * * * * *|* ver|to _ _ _ _ en-|dure.|
w: in the _|midst, the|dam- sels _|do With|tim- * * * * *|* brels|sweet- * * * * ly|play.|
w: Ja- cob’s _|whole pos-|te- ri- *|ty A-|gree _ _ _ _ _|_ with|one _ _ _ _ ac-|cord.|
V:4
 F,4 | F,8 (E,2 D,2) | C,8 A,,4 | B,,8 F,4 | C,8 C,4 | (F,3 E, D,4) C,4 | (D,3 E, F,4) G,4 | %7
w: Thy|God hath _|sent forth|strength for|thee: O|God, _ _ make|firm _ _ and|
w: The|sin- gers _|go be-|fore with|joy, The|min- * * strels|make _ _ no|
w: Now|in the _|con- gre-|ga- tion|thou, O|Is- * * rael,|praise _ _ the|
 C,8 F,4 | F,8 C,4 | %9
w: sure The|thing that|
w: stay; And|in the|
w: Lord; And|Ja- cob’s|
"^Notes: Original clefs are treble, alto, tenor and bass. The B§ in the tenor part of beat 3 of bar 6 is indicated in the source with a #. The text of the first verse only is underlaid in the source, with the three subsquent verses given here printedafter the music: these have been underlaid editorially." C,8 A,,4 | %10
w: thou hast|
w: midst, the|
w: whole pos-|
 B,,8 C,4 | F,8 z4 | z4 z4 C,4 | (F,3 G, A,4) G,4 | (F,E,D,E, F,4) C,4 | F,,8 |] %16
w: wrought in|us,|For|e- * * ver|to _ _ _ _ en-|dure.|
w: dam- sels|do|With|tim- * * brels|sweet- * * * * ly|play.|
w: te- ri-|ty|A-|gree _ _ with|one _ _ _ _ ac-|cord.|

